<map version="1.4" tiledversion="1.4.2" orientation="orthogonal" renderorder="right-down" compressionlevel="0" width="34" height="16" tilewidth="16" tileheight="16" infinite="0" backgroundcolor="#696A79" nextlayerid="4" nextobjectid="1"><tileset firstgid="1" name="Floor_Tiles2" tilewidth="16" tileheight="16" tilecount="648" columns="18" objectalignment="topleft" margin="0" spacing="0"><image source="..\..\..\tiles\tiles\Floor Tiles2.png" width="288" height="576"/></tileset><tileset firstgid="649" name="Other_Tiles2" tilewidth="16" tileheight="16" tilecount="252" columns="18" objectalignment="topleft" margin="0" spacing="0"><image source="..\..\..\tiles\tiles\Other Tiles2.png" width="288" height="224"/></tileset><tileset firstgid="901" name="Trees_foliage_trunk" tilewidth="16" tileheight="16" tilecount="1040" columns="80" objectalignment="topleft" margin="0" spacing="0"><image source="..\..\..\tiles\trees\Trees_foliage_trunk.png" width="1280" height="208"/></tileset><tileset firstgid="1941" name="Decor" tilewidth="16" tileheight="16" tilecount="884" columns="26" objectalignment="topleft" margin="0" spacing="0"><image source="..\..\..\tiles\int_ext_decoration\Decor.png" width="416" height="544"/></tileset><tileset firstgid="2825" name="GandalfHardcore_Background_layers_layer_1" tilewidth="16" tileheight="16" tilecount="1408" columns="64" objectalignment="topleft" margin="0" spacing="0"><image source="..\..\..\backgrounds\Normal BG\GandalfHardcore Background layers_layer 1.png" width="1024" height="346"/></tileset><tileset firstgid="4233" name="Garden_Decorations" tilewidth="16" tileheight="16" tilecount="112" columns="14" objectalignment="topleft" margin="0" spacing="0"><image source="..\..\..\tiles\int_ext_decoration\Garden Decorations.png" width="224" height="128"/></tileset><tileset firstgid="4345" name="GandalfHardcore_Farming_Tiles_and_Crops_32x32" tilewidth="16" tileheight="16" tilecount="1536" columns="48" objectalignment="topleft" margin="0" spacing="0"><image source="..\..\..\tiles\int_ext_decoration\GandalfHardcore Farming Tiles and Crops 32x32.png" width="768" height="512"/></tileset><tileset firstgid="5881" name="Campfire_sheet" tilewidth="16" tileheight="16" tilecount="180" columns="10" objectalignment="topleft" margin="0" spacing="0"><image source="..\..\..\tiles\animated\Campfire sheet.png" width="160" height="288"/></tileset><tileset firstgid="6061" name="GandalfHardcore_Animated_Water_Tiles" tilewidth="16" tileheight="16" tilecount="880" columns="40" objectalignment="topleft" margin="0" spacing="0"><image source="..\..\..\tiles\animated\GandalfHardcore Animated Water Tiles.png" width="640" height="352"/></tileset><tileset firstgid="6941" name="Weeping_Willow1" tilewidth="16" tileheight="16" tilecount="168" columns="14" objectalignment="topleft" margin="0" spacing="0"><image source="..\..\..\tiles\trees\Weeping Willow1.png" width="224" height="192"/></tileset><tileset firstgid="7109" name="Unnamed" tilewidth="16" tileheight="16" tilecount="3150" columns="63" objectalignment="topleft" margin="0" spacing="0"><image source="..\..\..\tiles\buildings\Pixel Art Village full sheet.png" width="996" height="800"/></tileset><tileset firstgid="10259" name="Pine_forest_sheet" tilewidth="16" tileheight="16" tilecount="637" columns="49" objectalignment="topleft" margin="0" spacing="0"><image source="..\..\..\tiles\trees\Pine forest sheet.png" width="776" height="208"/></tileset><tileset firstgid="10896" name="Plains_parallax" tilewidth="16" tileheight="16" tilecount="3200" columns="40" objectalignment="topleft" margin="0" spacing="0"><image source="..\..\..\backgrounds\Plains parallax.png" width="640" height="1280"/></tileset><tileset firstgid="14096" name="SSW_Tavern" tilewidth="16" tileheight="16" tilecount="3672" columns="68" objectalignment="topleft" margin="0" spacing="0"><image source="..\..\..\tiles\buildings\SSW_Tavern.png" width="1088" height="864"/></tileset><tileset firstgid="17768" name="SSW_Interriors" tilewidth="16" tileheight="16" tilecount="3400" columns="68" objectalignment="topleft" margin="0" spacing="0"><image source="..\..\..\tiles\buildings\SSW_Interriors.png" width="1088" height="800"/></tileset><tileset firstgid="21168" name="SSW_Buildings_and_Ruins" tilewidth="16" tileheight="16" tilecount="3552" columns="74" objectalignment="topleft" margin="0" spacing="0"><image source="..\..\..\tiles\buildings\SSW_Buildings_and_Ruins.png" width="1184" height="768"/></tileset><tileset firstgid="24720" name="SSW_Workplaces" tilewidth="16" tileheight="16" tilecount="1352" columns="52" objectalignment="topleft" margin="0" spacing="0"><image source="..\..\..\tiles\buildings\SSW_Workplaces.png" width="832" height="416"/></tileset><tileset firstgid="26072" name="House_Furniture_Tiles_32x32" tilewidth="16" tileheight="16" tilecount="832" columns="32" objectalignment="topleft" margin="0" spacing="0"><image source="..\..\..\tiles\int_ext_decoration\House Furniture Tiles 32x32.png" width="512" height="416"/></tileset><tileset firstgid="26904" name="Terrain" tilewidth="16" tileheight="16" tilecount="4" columns="4" objectalignment="topleft"><image source="Terrain.intgrid.png" width="64" height="16"/></tileset><layer id="1" name="Terrain_values" width="34" height="16" opacity="1"><data encoding="csv">0,0,0,0,0,0,0,0,0,0,0,0,0,0,0,0,0,0,0,0,0,0,0,0,0,0,0,0,0,0,0,0,0,0,0,0,0,0,0,0,0,0,0,0,0,0,0,0,0,0,0,0,0,0,0,0,0,0,0,0,0,0,0,0,0,0,0,0,0,0,0,0,0,0,0,0,0,0,0,0,0,0,0,0,0,0,0,0,0,0,0,0,0,0,0,0,0,0,0,0,0,0,0,0,0,0,0,0,0,0,0,0,0,0,0,0,0,0,0,0,0,0,0,0,0,0,0,0,0,0,0,0,0,0,0,0,0,0,0,0,0,0,0,0,0,0,0,0,0,0,0,0,0,0,0,0,0,0,0,0,0,0,0,0,0,0,0,0,0,0,0,0,0,0,0,0,0,0,0,0,0,0,0,0,0,0,0,0,0,0,0,0,0,0,0,0,0,0,0,0,0,0,0,0,0,0,0,0,0,0,0,0,0,0,0,0,0,0,0,0,0,0,0,0,0,0,0,0,0,0,0,0,0,0,0,0,0,0,0,0,0,0,0,0,0,0,0,0,0,0,0,0,0,0,0,0,0,0,0,0,0,0,0,0,0,0,0,0,0,0,0,0,0,0,0,0,0,0,0,0,0,0,0,0,0,0,0,0,0,0,0,0,0,0,0,0,0,0,0,0,0,0,0,0,0,0,0,0,0,0,0,0,0,0,0,0,0,0,0,0,0,0,0,0,0,0,0,0,0,0,0,0,0,0,0,0,0,0,0,0,0,0,0,0,0,0,0,0,0,0,0,0,0,0,0,0,0,0,0,0,0,0,0,0,0,0,0,0,0,0,0,0,0,0,0,0,0,0,0,0,0,0,0,0,0,0,0,0,0,0,0,0,0,0,0,0,0,0,0,0,0,0,0,0,0,0,0,0,0,0,0,0,0,0,0,0,0,0,0,0,0,0,0,0,0,0,0,0,0,0,0,0,0,0,0,0,0,0,0,0,0,0,0,0,0,0,0,0,0,0,0,0,0,0,0,0,0,0,0,0,0,0,0,0,0,0,0,0,0,0,0,0,0,0,0,0,0,0,0,0,0,0,0,0,0,0,0,0,0,0,0,0,0,0,0,0,0,0,0,0,0,0,0,0,0,0,0,0,0,0,0,0,0,0,0,0,0,0,0,0,0,0,0,0,0,0,0,0,0,0,0,0,0,0,0,0,0,0,0,0,0,0,0,0</data></layer><objectgroup id="2" name="Entities"/><layer id="3" name="Interior_Back_Walls" width="34" height="16" opacity="1"><data encoding="csv">15336,15336,15336,15336,15336,15336,15336,15336,15336,15336,15336,15336,15336,15336,15336,15336,15336,15336,15336,15336,15336,15336,15336,15337,15338,15339,15340,15341,15342,15343,15344,15345,15346,15336,15336,15336,15336,15336,15336,15336,15336,15336,15336,15336,15336,15336,15336,15336,15336,15336,15336,15336,15336,15336,15336,15336,15404,15405,15406,15407,15408,15409,15410,15411,15412,15413,15414,15336,15336,15336,15336,15336,15336,15336,15336,15336,15336,15336,15336,15336,15336,15336,15336,15336,15336,15336,15336,15336,15336,15336,15472,15473,15474,15475,15476,15477,15478,15479,15480,15481,15482,15336,15336,15336,15336,15336,15336,15336,15336,15336,15336,15336,15336,15336,15336,15336,15336,15336,15336,15336,15336,15336,15336,15336,15540,15541,15542,15543,15544,15545,15546,15547,15548,15549,15550,15551,14136,14137,15322,15323,15324,15325,15326,15327,15328,15329,15330,15331,15332,15333,15334,15335,15320,15321,15322,15323,15324,15325,15608,15609,15610,15611,15612,15613,15614,15615,15616,15617,14142,14143,14204,14205,15390,15391,15392,15393,15394,15395,15396,15397,15398,15399,15400,15401,15402,15403,15388,15389,15390,15391,15392,15393,15676,15677,15678,15679,15680,15681,15682,15683,15684,15685,14210,14211,14408,14409,15458,15459,15460,15461,15462,15463,15464,15465,15466,15467,15468,15469,15470,15471,15456,15457,15458,15459,15460,15461,15744,15745,15746,15747,15748,15749,15750,15751,15752,15753,14278,14279,14408,14409,15526,15527,15528,15529,15530,15531,15532,15533,15534,15535,15536,15537,15538,15539,15524,15525,15526,15527,15528,15529,15812,15813,15814,15815,15816,15817,15818,15819,15820,15821,14346,14347,14204,14205,15594,15595,15596,15597,15598,15599,15600,15601,15602,15603,15604,15605,15606,15607,15592,15593,15594,15595,15596,15597,15880,15881,15882,15883,15884,15885,15886,15887,15888,15889,14414,14415,14272,14273,15662,15663,15664,15665,15666,15667,15668,15669,15670,15671,15672,15673,15674,15675,15660,15661,15662,15663,15664,15665,15948,15949,15950,15951,15952,15953,15954,15955,15956,15957,14482,14483,14340,14341,15730,16149,16280,16281,15734,15735,16149,16150,16151,15739,15740,15741,16149,16150,16151,15729,15730,16149,16150,16151,16016,16017,16018,16019,16020,16021,16022,16023,16024,16025,14346,14347,14408,14409,15798,16217,16348,16349,15802,15803,16217,16218,16219,15807,15808,15809,16217,16218,16219,15797,15798,16217,16218,16219,16084,16085,16086,16087,16088,16089,16090,16091,16092,16093,14346,14347,14476,14477,15866,16285,16416,16417,15870,15871,16285,16286,16287,15875,15876,15877,16285,16286,16287,15865,15866,16285,16286,16287,16152,16153,16154,16155,16156,16157,16158,16159,16160,16161,14414,14415,14544,14545,15934,16353,16484,16485,15938,15939,16353,16354,16355,15943,15944,15945,16353,16354,16355,15933,15934,16353,16354,16355,16220,16221,16222,16223,16224,16225,16226,16227,16228,16229,14550,14551,14612,14613,14683,14684,14684,14682,14683,14684,14684,14683,14684,14683,14684,14684,14684,14684,14684,14684,14684,14683,14684,14684,14684,14683,14684,14684,14684,14684,14683,14684,14683,14684,14618,14619,14749,14750,14751,14752,14752,14750,14751,14752,14752,14751,14752,14751,14752,14752,14752,14752,14752,14752,14752,14751,14752,14752,14752,14751,14752,14752,14752,14752,14751,14752,14751,14752,14751,14752</data></layer></map>